modules/micon/icons/spotify.svg

<svg width="1792" height="1792" viewBox="0 0 1792 1792" xmlns="http://www.w3.org/2000/svg"><path d="M1255 1210q0-32-30-51-193-115-447-115-133 0-287 34-42 9-42 52 0 20 13.5 34.5t35.5 14.5q5 0 37-8 132-27 243-27 226 0 397 103 19 11 33 11 19 0 33-13.5t14-34.5zm96-215q0-40-35-61-237-141-548-141-153 0-303 42-48 13-48 64 0 25 17.5 42.5t42.5 17.5q7 0 37-8 122-33 251-33 279 0 488 124 24 13 38 13 25 0 42.5-17.5t17.5-42.5zm108-248q0-47-40-70-126-73-293-110.5t-343-37.5q-204 0-364 47-23 7-38.5 25.5t-15.5 48.5q0 31 20.5 52t51.5 21q11 0 40-8 133-37 307-37 159 0 309.5 34t253.5 95q21 12 40 12 29 0 50.5-20.5t21.5-51.5zm205 149q0 209-103 385.5t-279.5 279.5-385.5 103-385.5-103-279.5-279.5-103-385.5 103-385.5 279.5-279.5 385.5-103 385.5 103 279.5 279.5 103 385.5z"/></svg>

<svg width="1792" height="1792" xmlns="http://www.w3.org/2000/svg"><path d="M1255 1210q0-32-30-51-193-115-447-115-133 0-287 34-42 9-42 52 0 20 13.5 34.5T498 1179q5 0 37-8 132-27 243-27 226 0 397 103 19 11 33 11 19 0 33-13.5t14-34.5zm96-215q0-40-35-61-237-141-548-141-153 0-303 42-48 13-48 64 0 25 17.5 42.5T477 959q7 0 37-8 122-33 251-33 279 0 488 124 24 13 38 13 25 0 42.5-17.5T1351 995zm108-248q0-47-40-70-126-73-293-110.5T783 529q-204 0-364 47-23 7-38.5 25.5T365 650q0 31 20.5 52t51.5 21q11 0 40-8 133-37 307-37 159 0 309.5 34t253.5 95q21 12 40 12 29 0 50.5-20.5T1459 747zm205 149q0 209-103 385.5T1281.5 1561 896 1664t-385.5-103T231 1281.5 128 896t103-385.5T510.5 231 896 128t385.5 103T1561 510.5 1664 896z"/></svg>
